X:1
T:Rugiadose
T:Rugiadose
T:Gio.Girolamo Kapsperger
C:Gio.Girolamo Kapsperger
%%score 1 { 2 | 3 }
L:1/8
Q:1/4=120
M:4/4
K:F
V:1 treble nm="Soprano" snm="S"
V:2 treble nm="BC" snm="BC"
V:3 bass 
V:1
 z2 dd d3 c | B3 A G2 G2 | z2 _ee d3 e | c3 d B2 B2 :: z2 AB c2 c2 | c3 =B c2 c2 | z2 BB A3 B | %7
w: Ru- gia- do- se|van l'au- ret- te,|in- vo- lan- do'ai|va- ghi fio- ri,|su'i- sme- ral- di|de l'her- be- te,|i bei spi- rei|
w: Dol- ci la- dre'av-|ven- tu- ro- se,|ch'a so- a- ni|le ra- pi- ne,|ch'an per fur- to|gi- cli'e ro- se,|e le per- le|
w: Pie- ne'il se- no|di te- so- ro,|del lor fur- to|van ri- den- ti,|e scio- glien- do|pen- ne d'o- ro,|for- man au- re|
 G3 A F2 F2 :| %8
w: de gl'o- do- ri.|
w: de le bri- ne.|
w: di con- ten- ti.|
V:2
 [DFB]4 [Fd]2 [Ac]2 | [DGB]2 [FA]2 [GB]4 | [_EGc]4 [DB]2 [GB]2 | B2 A2 [DFB]4 :: [FAc]6 [Gc]2 | %5
 [Ac]2 [D=B]2 [EGc]4 | [GBd]4 [FA]2 [FB]2 | [EGc]4 [FAc]4 :| %8
V:3
 B,,4 B,,2 F,,2 | G,,2 D,2 _E,4 | C,4 G,2 _E,2 | F,4 B,,4 :: F,6 E,2 | F,2 G,2 C,4 | %6
 G,,4 D,2 B,,2 | C,4 F,,4 :| %8

